assets/1. Faces/Face with tears of joy/Color/face_with_tears_of_joy_color.svg

<svg width="100%" height="100%" viewBox="0 0 32 32" fill="none" xmlns="http://www.w3.org/2000/svg">
<path d="M15.9989 29.9978C25.3333 29.9978 29.9978 23.7303 29.9978 15.9989C29.9978 8.26751 25.3333 2 15.9989 2C6.66443 2 2 8.26751 2 15.9989C2 23.7303 6.66443 29.9978 15.9989 29.9978Z" fill="url(#paint0_radial_23_377)"/>
<path d="M15.9989 29.9978C25.3333 29.9978 29.9978 23.7303 29.9978 15.9989C29.9978 8.26751 25.3333 2 15.9989 2C6.66443 2 2 8.26751 2 15.9989C2 23.7303 6.66443 29.9978 15.9989 29.9978Z" fill="url(#paint1_radial_23_377)"/>
<path d="M15.9989 29.9978C25.3333 29.9978 29.9978 23.7303 29.9978 15.9989C29.9978 8.26751 25.3333 2 15.9989 2C6.66443 2 2 8.26751 2 15.9989C2 23.7303 6.66443 29.9978 15.9989 29.9978Z" fill="url(#paint2_radial_23_377)"/>
<path d="M15.9989 29.9978C25.3333 29.9978 29.9978 23.7303 29.9978 15.9989C29.9978 8.26751 25.3333 2 15.9989 2C6.66443 2 2 8.26751 2 15.9989C2 23.7303 6.66443 29.9978 15.9989 29.9978Z" fill="url(#paint3_radial_23_377)" fill-opacity="0.6"/>
<path d="M15.9989 29.9978C25.3333 29.9978 29.9978 23.7303 29.9978 15.9989C29.9978 8.26751 25.3333 2 15.9989 2C6.66443 2 2 8.26751 2 15.9989C2 23.7303 6.66443 29.9978 15.9989 29.9978Z" fill="url(#paint4_radial_23_377)"/>
<path d="M15.9989 29.9978C25.3333 29.9978 29.9978 23.7303 29.9978 15.9989C29.9978 8.26751 25.3333 2 15.9989 2C6.66443 2 2 8.26751 2 15.9989C2 23.7303 6.66443 29.9978 15.9989 29.9978Z" fill="url(#paint5_radial_23_377)"/>
<path d="M15.9989 29.9978C25.3333 29.9978 29.9978 23.7303 29.9978 15.9989C29.9978 8.26751 25.3333 2 15.9989 2C6.66443 2 2 8.26751 2 15.9989C2 23.7303 6.66443 29.9978 15.9989 29.9978Z" fill="url(#paint6_radial_23_377)"/>
<path d="M15.9989 29.9978C25.3333 29.9978 29.9978 23.7303 29.9978 15.9989C29.9978 8.26751 25.3333 2 15.9989 2C6.66443 2 2 8.26751 2 15.9989C2 23.7303 6.66443 29.9978 15.9989 29.9978Z" fill="url(#paint7_radial_23_377)"/>
<g opacity="0.5" filter="url(#filter0_f_23_377)">
<path d="M7.5 11.5C7.5 11.5 7.75 9.5 10 9.5C12.25 9.5 12.5 11.5 12.5 11.5" stroke="#9A4609" stroke-width="2" stroke-linecap="round"/>
</g>
<g opacity="0.5" filter="url(#filter1_f_23_377)">
<path d="M18.5 11.5C18.5 11.5 19 9.5 21 9.5C23 9.5 23.5 11.5 23.5 11.5" stroke="#9A4609" stroke-width="2" stroke-linecap="round"/>
</g>
<path d="M8 11C8 11 8.25 9 10.5 9C12.75 9 13 11 13 11" stroke="#43273B" stroke-width="2" stroke-linecap="round" stroke-linejoin="round"/>
<g opacity="0.26" filter="url(#filter2_f_23_377)">
<path d="M8.25 10.75C8.25 10.75 8.5 8.75 10.75 8.75C13 8.75 13.25 10.75 13.25 10.75" stroke="white" stroke-width="0.75" stroke-linecap="round" stroke-linejoin="round"/>
</g>
<path d="M19 11C19 11 19.5 9 21.5 9C23.5 9 24 11 24 11" stroke="#43273B" stroke-width="2" stroke-linecap="round" stroke-linejoin="round"/>
<g opacity="0.26" filter="url(#filter3_f_23_377)">
<path d="M19.25 10.75C19.25 10.75 19.5 8.75 21.75 8.75C24 8.75 24.25 10.75 24.25 10.75" stroke="white" stroke-width="0.75" stroke-linecap="round" stroke-linejoin="round"/>
</g>
<path d="M16 25C7 25 7 16 7 16H25C25 16 25 25 16 25Z" fill="url(#paint8_radial_23_377)"/>
<path d="M8 16.5V16H24V16.5C24 17.0523 23.5523 17.5 23 17.5H9C8.44772 17.5 8 17.0523 8 16.5Z" fill="url(#paint9_linear_23_377)"/>
<path fill-rule="evenodd" clip-rule="evenodd" d="M2.9376 21.625C3.75695 22.1827 4.89237 22.1076 5.63013 21.3698L8.99993 18C9.82836 17.1716 9.82836 15.8284 8.99993 15C8.17151 14.1716 6.82836 14.1716 5.99993 15L2.63013 18.3698C2.46578 18.5341 2.33375 18.7193 2.23437 18.917C2.39065 19.8581 2.62505 20.7642 2.9376 21.625Z" fill="url(#paint10_radial_23_377)"/>
<path fill-rule="evenodd" clip-rule="evenodd" d="M29.8754 18.1254L26.75 15C25.9216 14.1716 24.5784 14.1716 23.75 15C22.9216 15.8284 22.9216 17.1716 23.75 18L27.1198 21.3698C27.6158 21.8658 28.2917 22.0624 28.9303 21.9683C29.401 20.7707 29.716 19.48 29.8754 18.1254Z" fill="url(#paint11_radial_23_377)"/>
<path d="M8 17L4.6302 20.3698C3.75264 21.2474 2.31246 21.1875 1.51081 20.2401C0.798161 19.3978 0.850067 18.1499 1.6302 17.3698L5 14C5.82843 13.1716 7.17157 13.1716 8 14C8.82843 14.8284 8.82843 16.1716 8 17Z" fill="url(#paint12_radial_23_377)"/>
<path d="M24.25 17L27.6198 20.3698C28.4974 21.2474 29.9375 21.1875 30.7392 20.2401C31.4518 19.3978 31.3999 18.1499 30.6198 17.3698L27.25 14C26.4216 13.1716 25.0784 13.1716 24.25 14C23.4216 14.8284 23.4216 16.1716 24.25 17Z" fill="url(#paint13_radial_23_377)"/>
<defs>
<filter id="filter0_f_23_377" x="5" y="7" width="10" height="7.00012" filterUnits="userSpaceOnUse" color-interpolation-filters="sRGB">
<feFlood flood-opacity="0" result="BackgroundImageFix"/>
<feBlend mode="normal" in="SourceGraphic" in2="BackgroundImageFix" result="shape"/>
<feGaussianBlur stdDeviation="0.75" result="effect1_foregroundBlur_23_377"/>
</filter>
<filter id="filter1_f_23_377" x="15.9998" y="7" width="10.0005" height="7.00024" filterUnits="userSpaceOnUse" color-interpolation-filters="sRGB">
<feFlood flood-opacity="0" result="BackgroundImageFix"/>
<feBlend mode="normal" in="SourceGraphic" in2="BackgroundImageFix" result="shape"/>
<feGaussianBlur stdDeviation="0.75" result="effect1_foregroundBlur_23_377"/>
</filter>
<filter id="filter2_f_23_377" x="6.375" y="6.875" width="8.75" height="5.75" filterUnits="userSpaceOnUse" color-interpolation-filters="sRGB">
<feFlood flood-opacity="0" result="BackgroundImageFix"/>
<feBlend mode="normal" in="SourceGraphic" in2="BackgroundImageFix" result="shape"/>
<feGaussianBlur stdDeviation="0.75" result="effect1_foregroundBlur_23_377"/>
</filter>
<filter id="filter3_f_23_377" x="17.375" y="6.875" width="8.75" height="5.75" filterUnits="userSpaceOnUse" color-interpolation-filters="sRGB">
<feFlood flood-opacity="0" result="BackgroundImageFix"/>
<feBlend mode="normal" in="SourceGraphic" in2="BackgroundImageFix" result="shape"/>
<feGaussianBlur stdDeviation="0.75" result="effect1_foregroundBlur_23_377"/>
</filter>
<radialGradient id="paint0_radial_23_377" cx="0" cy="0" r="1" gradientUnits="userSpaceOnUse" gradientTransform="translate(25.5 9) rotate(132.839) scale(37.5033)">
<stop stop-color="#FFF478"/>
<stop offset="0.474827" stop-color="#FFB02E"/>
<stop offset="1" stop-color="#F70A8D"/>
</radialGradient>
<radialGradient id="paint1_radial_23_377" cx="0" cy="0" r="1" gradientUnits="userSpaceOnUse" gradientTransform="translate(25.5 9) rotate(131.878) scale(38.9487)">
<stop stop-color="#FFF478"/>
<stop offset="0.474827" stop-color="#FFB02E"/>
<stop offset="1" stop-color="#F70A8D"/>
</radialGradient>
<radialGradient id="paint2_radial_23_377" cx="0" cy="0" r="1" gradientUnits="userSpaceOnUse" gradientTransform="translate(16 12.5) rotate(101.31) scale(17.8466 22.8581)">
<stop offset="0.787821" stop-color="#F59639" stop-opacity="0"/>
<stop offset="0.972509" stop-color="#FF7DCE"/>
</radialGradient>
<radialGradient id="paint3_radial_23_377" cx="0" cy="0" r="1" gradientUnits="userSpaceOnUse" gradientTransform="translate(18 14) rotate(135) scale(41.0122)">
<stop offset="0.314853" stop-opacity="0"/>
<stop offset="1"/>
</radialGradient>
<radialGradient id="paint4_radial_23_377" cx="0" cy="0" r="1" gradientUnits="userSpaceOnUse" gradientTransform="translate(16 17) rotate(77.692) scale(28.1469)">
<stop offset="0.507903" stop-color="#7D6133" stop-opacity="0"/>
<stop offset="1" stop-color="#715B32"/>
</radialGradient>
<radialGradient id="paint5_radial_23_377" cx="0" cy="0" r="1" gradientUnits="userSpaceOnUse" gradientTransform="translate(16.5 16.5) rotate(55.7131) scale(13.3135 9.65032)">
<stop stop-color="#FFB849"/>
<stop offset="1" stop-color="#FFB847" stop-opacity="0"/>
</radialGradient>
<radialGradient id="paint6_radial_23_377" cx="0" cy="0" r="1" gradientUnits="userSpaceOnUse" gradientTransform="translate(20.5 18) rotate(9.86581) scale(11.6726)">
<stop stop-color="#FFA64B"/>
<stop offset="0.900412" stop-color="#FFAE46" stop-opacity="0"/>
</radialGradient>
<radialGradient id="paint7_radial_23_377" cx="0" cy="0" r="1" gradientUnits="userSpaceOnUse" gradientTransform="translate(17.5 15) rotate(43.9708) scale(59.0529)">
<stop offset="0.185425" stop-opacity="0"/>
<stop offset="1" stop-opacity="0.4"/>
</radialGradient>
<radialGradient id="paint8_radial_23_377" cx="0" cy="0" r="1" gradientUnits="userSpaceOnUse" gradientTransform="translate(16 27) rotate(-90) scale(11 22)">
<stop stop-color="#F70A8D"/>
<stop offset="1" stop-color="#89029C"/>
</radialGradient>
<linearGradient id="paint9_linear_23_377" x1="16" y1="16" x2="16" y2="17.5" gradientUnits="userSpaceOnUse">
<stop stop-color="#ECCDFF"/>
<stop offset="1" stop-color="white"/>
</linearGradient>
<radialGradient id="paint10_radial_23_377" cx="0" cy="0" r="1" gradientUnits="userSpaceOnUse" gradientTransform="translate(4 19.5) rotate(-32.0054) scale(4.71699 3.06194)">
<stop stop-color="#6D4534"/>
<stop offset="1" stop-color="#FF822D" stop-opacity="0"/>
</radialGradient>
<radialGradient id="paint11_radial_23_377" cx="0" cy="0" r="1" gradientUnits="userSpaceOnUse" gradientTransform="translate(25.5 16.5) rotate(33.6901) scale(5.40833 3.5107)">
<stop stop-color="#6D4534"/>
<stop offset="1" stop-color="#FF822D" stop-opacity="0"/>
</radialGradient>
<radialGradient id="paint12_radial_23_377" cx="0" cy="0" r="1" gradientUnits="userSpaceOnUse" gradientTransform="translate(8 15) rotate(147.529) scale(6.5192 2.96814)">
<stop stop-color="#508FFF"/>
<stop offset="1" stop-color="#3D5BF1"/>
</radialGradient>
<radialGradient id="paint13_radial_23_377" cx="0" cy="0" r="1" gradientUnits="userSpaceOnUse" gradientTransform="translate(27.5 15.5) rotate(49.3987) scale(4.60977 2.09879)">
<stop stop-color="#5092FF"/>
<stop offset="1" stop-color="#3F5FFF"/>
</radialGradient>
</defs>
</svg>

<svg width="100%" height="100%" viewBox="0 0 32 32" xmlns="http://www.w3.org/2000/svg"><path fill="url(#a)" d="M15.999 29.998c9.334 0 13.999-6.268 13.999-14 0-7.73-4.665-13.998-14-13.998C6.665 2 2 8.268 2 15.999s4.664 13.999 13.999 13.999"/><path fill="url(#b)" d="M15.999 29.998c9.334 0 13.999-6.268 13.999-14 0-7.73-4.665-13.998-14-13.998C6.665 2 2 8.268 2 15.999s4.664 13.999 13.999 13.999"/><path fill="url(#c)" d="M15.999 29.998c9.334 0 13.999-6.268 13.999-14 0-7.73-4.665-13.998-14-13.998C6.665 2 2 8.268 2 15.999s4.664 13.999 13.999 13.999"/><path fill="url(#d)" fill-opacity=".6" d="M15.999 29.998c9.334 0 13.999-6.268 13.999-14 0-7.73-4.665-13.998-14-13.998C6.665 2 2 8.268 2 15.999s4.664 13.999 13.999 13.999"/><path fill="url(#e)" d="M15.999 29.998c9.334 0 13.999-6.268 13.999-14 0-7.73-4.665-13.998-14-13.998C6.665 2 2 8.268 2 15.999s4.664 13.999 13.999 13.999"/><path fill="url(#f)" d="M15.999 29.998c9.334 0 13.999-6.268 13.999-14 0-7.73-4.665-13.998-14-13.998C6.665 2 2 8.268 2 15.999s4.664 13.999 13.999 13.999"/><path fill="url(#g)" d="M15.999 29.998c9.334 0 13.999-6.268 13.999-14 0-7.73-4.665-13.998-14-13.998C6.665 2 2 8.268 2 15.999s4.664 13.999 13.999 13.999"/><path fill="url(#h)" d="M15.999 29.998c9.334 0 13.999-6.268 13.999-14 0-7.73-4.665-13.998-14-13.998C6.665 2 2 8.268 2 15.999s4.664 13.999 13.999 13.999"/><g filter="url(#i)" opacity=".5"><path stroke="#9A4609" stroke-linecap="round" stroke-width="2" d="M7.5 11.5s.25-2 2.5-2 2.5 2 2.5 2"/></g><g filter="url(#j)" opacity=".5"><path stroke="#9A4609" stroke-linecap="round" stroke-width="2" d="M18.5 11.5s.5-2 2.5-2 2.5 2 2.5 2"/></g><path stroke="#43273B" stroke-linecap="round" stroke-linejoin="round" stroke-width="2" d="M8 11s.25-2 2.5-2 2.5 2 2.5 2"/><g filter="url(#k)" opacity=".26"><path stroke="#fff" stroke-linecap="round" stroke-linejoin="round" stroke-width=".75" d="M8.25 10.75s.25-2 2.5-2 2.5 2 2.5 2"/></g><path stroke="#43273B" stroke-linecap="round" stroke-linejoin="round" stroke-width="2" d="M19 11s.5-2 2.5-2 2.5 2 2.5 2"/><g filter="url(#l)" opacity=".26"><path stroke="#fff" stroke-linecap="round" stroke-linejoin="round" stroke-width=".75" d="M19.25 10.75s.25-2 2.5-2 2.5 2 2.5 2"/></g><path fill="url(#m)" d="M16 25c-9 0-9-9-9-9h18s0 9-9 9"/><path fill="url(#n)" d="M8 16.5V16h16v.5a1 1 0 0 1-1 1H9a1 1 0 0 1-1-1"/><path fill="url(#o)" fill-rule="evenodd" d="M2.938 21.625c.819.558 1.954.483 2.692-.255L9 18a2.121 2.121 0 1 0-3-3l-3.37 3.37c-.164.164-.296.35-.396.547.157.941.391 1.847.704 2.708" clip-rule="evenodd"/><path fill="url(#p)" fill-rule="evenodd" d="M29.875 18.125 26.75 15a2.121 2.121 0 0 0-3 3l3.37 3.37a2.12 2.12 0 0 0 1.81.598c.471-1.197.786-2.488.945-3.843" clip-rule="evenodd"/><path fill="url(#q)" d="m8 17-3.37 3.37a2.121 2.121 0 1 1-3-3L5 14a2.121 2.121 0 0 1 3 3"/><path fill="url(#r)" d="m24.25 17 3.37 3.37a2.121 2.121 0 1 0 3-3L27.25 14a2.121 2.121 0 0 0-3 3"/><defs><radialGradient id="a" cx="0" cy="0" r="1" gradientTransform="rotate(132.839 10.786 10.065)scale(37.5033)" gradientUnits="userSpaceOnUse"><stop stop-color="#FFF478"/><stop offset=".475" stop-color="#FFB02E"/><stop offset="1" stop-color="#F70A8D"/></radialGradient><radialGradient id="b" cx="0" cy="0" r="1" gradientTransform="rotate(131.878 10.74 10.193)scale(38.9487)" gradientUnits="userSpaceOnUse"><stop stop-color="#FFF478"/><stop offset=".475" stop-color="#FFB02E"/><stop offset="1" stop-color="#F70A8D"/></radialGradient><radialGradient id="c" cx="0" cy="0" r="1" gradientTransform="rotate(101.31 2.876 12.808)scale(17.8466 22.8581)" gradientUnits="userSpaceOnUse"><stop offset=".788" stop-color="#F59639" stop-opacity="0"/><stop offset=".973" stop-color="#FF7DCE"/></radialGradient><radialGradient id="d" cx="0" cy="0" r="1" gradientTransform="matrix(-29 29 -29 -29 18 14)" gradientUnits="userSpaceOnUse"><stop offset=".315" stop-opacity="0"/><stop offset="1"/></radialGradient><radialGradient id="e" cx="0" cy="0" r="1" gradientTransform="rotate(77.692 -2.555 18.434)scale(28.1469)" gradientUnits="userSpaceOnUse"><stop offset=".508" stop-color="#7D6133" stop-opacity="0"/><stop offset="1" stop-color="#715B32"/></radialGradient><radialGradient id="f" cx="0" cy="0" r="1" gradientTransform="rotate(55.713 -7.36 23.86)scale(13.3135 9.65032)" gradientUnits="userSpaceOnUse"><stop stop-color="#FFB849"/><stop offset="1" stop-color="#FFB847" stop-opacity="0"/></radialGradient><radialGradient id="g" cx="0" cy="0" r="1" gradientTransform="matrix(11.49998 2 -2 11.49998 20.5 18)" gradientUnits="userSpaceOnUse"><stop stop-color="#FFA64B"/><stop offset=".9" stop-color="#FFAE46" stop-opacity="0"/></radialGradient><radialGradient id="h" cx="0" cy="0" r="1" gradientTransform="rotate(43.971 -9.827 29.173)scale(59.0529)" gradientUnits="userSpaceOnUse"><stop offset=".185" stop-opacity="0"/><stop offset="1" stop-opacity=".4"/></radialGradient><radialGradient id="m" cx="0" cy="0" r="1" gradientTransform="matrix(0 -11 22 0 16 27)" gradientUnits="userSpaceOnUse"><stop stop-color="#F70A8D"/><stop offset="1" stop-color="#89029C"/></radialGradient><radialGradient id="o" cx="0" cy="0" r="1" gradientTransform="matrix(4 -2.5 1.62283 2.59652 4 19.5)" gradientUnits="userSpaceOnUse"><stop stop-color="#6D4534"/><stop offset="1" stop-color="#FF822D" stop-opacity="0"/></radialGradient><radialGradient id="p" cx="0" cy="0" r="1" gradientTransform="matrix(4.5 3 -1.94739 2.92108 25.5 16.5)" gradientUnits="userSpaceOnUse"><stop stop-color="#6D4534"/><stop offset="1" stop-color="#FF822D" stop-opacity="0"/></radialGradient><radialGradient id="q" cx="0" cy="0" r="1" gradientTransform="matrix(-5.50001 3.49998 -1.59351 -2.50411 8 15)" gradientUnits="userSpaceOnUse"><stop stop-color="#508FFF"/><stop offset="1" stop-color="#3D5BF1"/></radialGradient><radialGradient id="r" cx="0" cy="0" r="1" gradientTransform="matrix(3 3.5 -1.59352 1.36587 27.5 15.5)" gradientUnits="userSpaceOnUse"><stop stop-color="#5092FF"/><stop offset="1" stop-color="#3F5FFF"/></radialGradient><filter id="i" width="10" height="7" x="5" y="7" color-interpolation-filters="sRGB" filterUnits="userSpaceOnUse"><feFlood flood-opacity="0" result="BackgroundImageFix"/><feBlend in="SourceGraphic" in2="BackgroundImageFix" result="shape"/><feGaussianBlur result="effect1_foregroundBlur_23_377" stdDeviation=".75"/></filter><filter id="j" width="10.001" height="7" x="16" y="7" color-interpolation-filters="sRGB" filterUnits="userSpaceOnUse"><feFlood flood-opacity="0" result="BackgroundImageFix"/><feBlend in="SourceGraphic" in2="BackgroundImageFix" result="shape"/><feGaussianBlur result="effect1_foregroundBlur_23_377" stdDeviation=".75"/></filter><filter id="k" width="8.75" height="5.75" x="6.375" y="6.875" color-interpolation-filters="sRGB" filterUnits="userSpaceOnUse"><feFlood flood-opacity="0" result="BackgroundImageFix"/><feBlend in="SourceGraphic" in2="BackgroundImageFix" result="shape"/><feGaussianBlur result="effect1_foregroundBlur_23_377" stdDeviation=".75"/></filter><filter id="l" width="8.75" height="5.75" x="17.375" y="6.875" color-interpolation-filters="sRGB" filterUnits="userSpaceOnUse"><feFlood flood-opacity="0" result="BackgroundImageFix"/><feBlend in="SourceGraphic" in2="BackgroundImageFix" result="shape"/><feGaussianBlur result="effect1_foregroundBlur_23_377" stdDeviation=".75"/></filter><linearGradient id="n" x1="16" x2="16" y1="16" y2="17.5" gradientUnits="userSpaceOnUse"><stop stop-color="#ECCDFF"/><stop offset="1" stop-color="#fff"/></linearGradient></defs></svg>
